X: 17980
T: Hugh McKenna's
R: reel
M: 4/4
K: Eminor
ba|:g2e2 e2B2|eBef g2ag|f2d2 a2d2|fdfg a2ba|
g2e2 e2B2|eBef g2ga|b2e2 bagf|1 g2e2 e2ba:|2 g2e2 e2gf||
e2B2 B2^d2|eBef g2ag|f2d2 d2A2|FAde f2gf|
e2B2 B2^d2|eBef g2fe|d2Bd B2AF|E4 E2gf|
e2B2 B2^d2|eBef g2ag|f2d2 d2A2|FAde f2ed|
e2d^c d2cB|A2Bc B2AG|F2c2 BAGF|E4 E2ba||

